X: 170
T: No_30_Cypress_Swamp_Hunting_Dance_Song_(e).krn
N: Derived from No_30_Cypress_Swamp_Hunting_Dance_Song_(e).krn
%%abc-version 2.0
%%abcx-abcm2ps-target-version 5.9.1 (29 Sep 2008)
%%abc-creator hum2abc beta
%%abcx-conversion-date 2019/03/15 08:38:45
%%humdrum-veritas 1461996391
%%humdrum-veritas-data 344210108
%%linebreak <none>
%%barnumbers 0
L: 1/8
M: 3/4
K: Eb clef=bass
[K:clef=bass][M:3/4]z4z B, | 
(3B,B,A,G,2(3G,E,B, ||  
[M:2/4]B,A, G,E, | 
E,2z2 | 
G,2B,2 | 
G,2G,2 | 
E,2E,2 ||  
[M:3/4]G,2G,F, G,E, ||  
[M:2/4]E,2z2 | 
E,4 | 
G,E,G,2 | 
E,2E,2 ||  
[M:3/4]G,2G,F, G,E, ||  
[M:2/4]E,2z2 ||  
[M:3/4]E,2E,B,,E,2 |]  



